public/avatar/item2/44.svg

<svg xmlns:xlink="http://www.w3.org/1999/xlink" height="99.2" width="82.2" xmlns="http://www.w3.org/2000/svg"><use height="9.9" transform="translate(33.3 71.45)" width="9.85" xlink:href="#a"/><defs><g id="a"><path d="M12.15 29.65q0 2-1.45 3.5-1.45 1.45-3.5 1.45-2 0-3.45-1.45-1.45-1.5-1.45-3.5 0-2.05 1.45-3.45 1.45-1.5 3.45-1.5 2.05 0 3.5 1.5 1.45 1.4 1.45 3.45" fill-rule="evenodd" transform="translate(-2.3 -24.7)"/><path d="M11.35 29.65q0 1.7-1.2 2.95-1.25 1.15-2.95 1.15-1.7 0-2.85-1.15-1.2-1.25-1.2-2.95 0-1.7 1.2-2.9 1.15-1.2 2.85-1.15 1.7-.05 2.95 1.15 1.2 1.2 1.2 2.9" fill="#ffdb0f" fill-rule="evenodd" transform="translate(-2.3 -24.7)"/><path d="M3.15 29.65q0-2.9 2.65-3.85v7.7q-2.65-1-2.65-3.85" fill="#009700" fill-rule="evenodd" transform="translate(-2.3 -24.7)"/><path d="M11.35 29.65q0 2.7-2.55 3.75v-7.55q2.55 1.05 2.55 3.8" fill="red" fill-rule="evenodd" transform="translate(-2.3 -24.7)"/><path d="M7.8 30.25q-.2.2-.5.2l-.5-.2-.2-.5.2-.5.5-.2.5.2.2.5-.2.5" fill="#009700" fill-rule="evenodd" transform="translate(-2.3 -24.7)"/><path d="M4.5 27.15q1.3-.9 2.7-.9 1.8 0 2.8 1.1" fill="none" stroke="#fff" stroke-linecap="round" stroke-linejoin="round" stroke-opacity=".6" transform="translate(-2.3 -24.7)"/><path d="M10 32.4q-1.3.9-2.7.9-1.8 0-2.8-1.1" fill="none" stroke="#000" stroke-linecap="round" stroke-linejoin="round" stroke-opacity=".302" transform="translate(-2.3 -24.7)"/></g></defs></svg>

<?xml version="1.0" encoding="UTF-8" standalone="no"?>
<svg xmlns:xlink="http://www.w3.org/1999/xlink" height="99.2px" width="82.2px" xmlns="http://www.w3.org/2000/svg">
  <g transform="matrix(1.0, 0.0, 0.0, 1.0, 31.0, 46.75)">
    <use height="9.9" transform="matrix(1.0, 0.0, 0.0, 1.0, 2.3, 24.7)" width="9.85" xlink:href="#shape0"/>
  </g>
  <defs>
    <g id="shape0" transform="matrix(1.0, 0.0, 0.0, 1.0, -2.3, -24.7)">
      <path d="M12.15 29.65 Q12.15 31.65 10.7 33.15 9.25 34.6 7.2 34.6 5.2 34.6 3.75 33.15 2.3 31.65 2.3 29.65 2.3 27.6 3.75 26.2 5.2 24.7 7.2 24.7 9.25 24.7 10.7 26.2 12.15 27.6 12.15 29.65" fill="#000000" fill-rule="evenodd" stroke="none"/>
      <path d="M11.35 29.65 Q11.35 31.35 10.15 32.6 8.9 33.75 7.2 33.75 5.5 33.75 4.35 32.6 3.15 31.35 3.15 29.65 3.15 27.95 4.35 26.75 5.5 25.55 7.2 25.6 8.9 25.55 10.15 26.75 11.35 27.95 11.35 29.65" fill="#ffdb0f" fill-rule="evenodd" stroke="none"/>
      <path d="M3.15 29.65 Q3.15 26.75 5.8 25.8 L5.8 33.5 Q3.15 32.5 3.15 29.65" fill="#009700" fill-rule="evenodd" stroke="none"/>
      <path d="M11.35 29.65 Q11.35 32.35 8.8 33.4 L8.8 25.85 Q11.35 26.9 11.35 29.65" fill="#ff0000" fill-rule="evenodd" stroke="none"/>
      <path d="M7.8 30.25 Q7.6 30.45 7.3 30.45 L6.8 30.25 6.6 29.75 6.8 29.25 7.3 29.05 7.8 29.25 8.0 29.75 7.8 30.25" fill="#009700" fill-rule="evenodd" stroke="none"/>
      <path d="M4.5 27.15 Q5.8 26.25 7.2 26.25 9.0 26.25 10.0 27.35" fill="none" stroke="#ffffff" stroke-linecap="round" stroke-linejoin="round" stroke-opacity="0.6" stroke-width="1.0"/>
      <path d="M10.0 32.4 Q8.7 33.3 7.3 33.3 5.5 33.3 4.5 32.2" fill="none" stroke="#000000" stroke-linecap="round" stroke-linejoin="round" stroke-opacity="0.3019608" stroke-width="1.0"/>
    </g>
  </defs>
</svg>
